packages/core/src/svgs/tokens/branded/WISE.svg

<svg width="24" height="24" viewBox="0 0 24 24" fill="none" xmlns="http://www.w3.org/2000/svg">
<path d="M5.78569 6.68311C5.78569 6.6981 5.79068 6.7081 5.80569 6.7081C8.12127 6.81813 10.1718 7.60333 11.9623 9.05869C11.9872 9.07869 12.0122 9.07869 12.0372 9.05869C13.7744 7.62166 15.936 6.79572 18.1888 6.7081C18.2138 6.7081 18.2288 6.69311 18.2288 6.6681V4.02744C18.2288 4.00744 18.2388 3.99744 18.2588 3.99744H18.984C18.999 3.99744 19.0039 4.00744 19.0039 4.01744V6.94316C19.0039 7.19323 18.924 7.35327 18.7589 7.42328C18.7089 7.44829 18.6339 7.45829 18.5289 7.4633C15.9982 7.5133 13.8277 8.39852 12.0223 10.1089C12.0072 10.124 11.9872 10.124 11.9722 10.1089C10.2215 8.42418 7.89021 7.47695 5.46061 7.4633C5.15052 7.4633 5.00049 7.30325 5.00049 6.98817V4.02244C5.00049 4.00744 5.01049 3.99744 5.0255 3.99744H5.74067C5.77068 3.99744 5.79068 4.01243 5.79068 4.04744L5.78569 6.68311Z" fill="white"/>
<path d="M12.0024 11.2393C12.0075 11.2393 12.0125 11.2393 12.0175 11.2292C12.7879 10.3292 13.7371 9.59892 14.8047 9.08495C15.8722 8.57098 17.0349 8.28444 18.2191 8.2435L18.7042 8.21349C18.8092 8.2085 18.9042 8.18349 18.9892 8.14347C19.4894 7.91342 19.7394 7.51332 19.7394 6.93317L19.7294 5.56284C19.7294 5.53783 19.7394 5.52783 19.7645 5.52783H20.4646C20.4896 5.52783 20.5047 5.54283 20.5047 5.57784C20.4946 5.87792 20.4946 6.17799 20.5047 6.49307C20.5096 6.87316 20.5047 7.16323 20.4745 7.34828C20.4289 7.66399 20.3041 7.963 20.1116 8.21748C19.9193 8.47195 19.6656 8.6736 19.3743 8.80364C19.1142 8.92867 18.8742 8.98869 18.6591 8.98869C17.7916 9.0073 16.9304 9.14186 16.0985 9.38879C14.4178 9.93835 12.9758 11.0467 12.0125 12.5296C12.0024 12.5495 11.9875 12.5495 11.9775 12.5296C11.2953 11.4811 10.3695 10.6132 9.27916 10.0001C8.18879 9.38695 6.96625 9.04681 5.71593 9.00869C5.45548 9.00386 5.19602 8.9754 4.94073 8.92368C4.53308 8.81964 4.17208 8.58191 3.91547 8.2485C3.65077 7.92352 3.50597 7.51735 3.50537 7.09822V5.56284C3.50537 5.53783 3.51537 5.52783 3.53539 5.52783H4.23556C4.26056 5.52783 4.27057 5.53783 4.27057 5.56284V6.9982C4.27057 7.27326 4.34059 7.51832 4.49562 7.73337C4.64565 7.94843 4.8557 8.09846 5.11577 8.17848C5.2258 8.21349 5.41584 8.2285 5.68591 8.2335C6.88306 8.26284 8.06062 8.54386 9.14201 9.05827C10.2234 9.57268 11.1844 10.309 11.9625 11.2192C11.9725 11.2343 11.9875 11.2393 12.0024 11.2343V11.2393Z" fill="white"/>
<path d="M10.5368 7.17821C10.222 7.01016 9.8981 6.85989 9.56656 6.7281C9.51655 6.70309 9.51655 6.68309 9.56656 6.66808C11.1448 6.07903 12.8833 6.08436 14.4577 6.68309C14.4728 6.70309 14.4728 6.71309 14.4527 6.72309C14.0927 6.86313 13.7526 7.02316 13.4425 7.18821C13.4015 7.21137 13.3535 7.2185 13.3075 7.20822C12.4512 7.01683 11.5631 7.01683 10.7068 7.20822C10.6484 7.21964 10.5878 7.20896 10.5368 7.17821Z" fill="white"/>
<path d="M12.0275 14.075C12.5126 12.8247 13.2929 11.8095 14.3581 11.0242C15.508 10.1664 16.8996 9.69378 18.3341 9.67395C18.6492 9.66389 18.8842 9.64389 19.0343 9.60888C19.6297 9.48829 20.1655 9.16646 20.5517 8.69744C20.9378 8.2284 21.1508 7.64076 21.1548 7.03324C21.1548 7.01323 21.1648 6.99823 21.1898 6.99823H21.96C21.9849 6.99823 22 7.01323 22 7.03823C21.9841 7.97211 21.6001 8.86193 20.9312 9.51389C20.2624 10.1658 19.363 10.5271 18.4291 10.5191C17.4332 10.5268 16.4544 10.7784 15.5781 11.2518C14.702 11.7251 13.9551 12.406 13.4028 13.2348C12.8311 14.1131 12.4968 15.1246 12.4326 16.1705V16.4306C12.4426 16.4756 12.4225 16.4956 12.3826 16.4956L11.6024 16.5006C11.5924 16.5006 11.5874 16.4956 11.5874 16.4856C11.57 15.5804 11.3568 14.6898 10.9622 13.875C10.5671 13.0648 10.012 12.3745 9.28682 11.8095C8.30061 11.0262 7.08954 10.5793 5.83096 10.5341C5.33083 10.5142 5.04076 10.4941 4.96574 10.4791C4.2849 10.356 3.65236 10.0441 3.14028 9.57886C2.78889 9.25614 2.50665 8.86547 2.31064 8.43048C2.11464 7.9955 2.00896 7.52525 2 7.04823C2 7.01323 2.01501 6.99823 2.05002 6.99823H2.83021C2.85522 6.99823 2.87022 7.01323 2.87022 7.04324C2.86259 7.3663 2.91973 7.68762 3.03826 7.98825C3.15679 8.28888 3.33433 8.56275 3.56039 8.79367C3.99496 9.28831 4.6046 9.59492 5.26082 9.64888C5.36084 9.65889 5.51087 9.66893 5.71593 9.67395C5.996 9.68888 6.20605 9.69892 6.34609 9.71887C7.6264 9.86894 8.77169 10.3391 9.77192 11.1192C10.7652 11.8837 11.5298 12.9061 11.9825 14.075C11.9975 14.115 12.0125 14.115 12.0275 14.075Z" fill="#30A8B5"/>
<path d="M8.06122 17.6909C8.68194 18.2292 9.40661 18.6345 10.1903 18.8813C10.9741 19.1282 11.8002 19.2115 12.6174 19.1262C13.4981 19.0367 14.3483 18.7547 15.1079 18.3C15.8673 17.8454 16.5177 17.2292 17.0125 16.4952C17.5074 15.7613 17.8348 14.9274 17.9715 14.0529C18.1083 13.1783 18.051 12.2843 17.8037 11.4342C17.7936 11.3992 17.8037 11.3843 17.8387 11.3843L18.6139 11.3493C18.6339 11.3493 18.6439 11.3543 18.6489 11.3743C18.999 12.6946 18.9489 14.0049 18.5138 15.3103C18.0972 16.5873 17.306 17.7094 16.2432 18.5311C15.1122 19.4315 13.722 19.9451 12.2773 19.9964C10.8019 20.0564 9.44656 19.6763 8.22126 18.8611C7.02504 18.0657 6.1066 16.917 5.59386 15.5751C5.08111 14.2332 4.99955 12.7647 5.36055 11.3743C5.36055 11.3543 5.37055 11.3443 5.39056 11.3443L6.16075 11.3843C6.20076 11.3843 6.21576 11.4043 6.20576 11.4443C5.88754 12.5536 5.89264 13.7307 6.22044 14.8373C6.54824 15.9438 7.18512 16.9338 8.05622 17.6909H8.06122Z" fill="white"/>
<path d="M8.81676 12.5646C8.62171 12.6346 8.49168 12.7646 8.42665 12.9597C8.35664 13.1497 8.37665 13.3348 8.47667 13.5098C8.62671 13.7448 8.82676 13.8499 9.09683 13.8199C9.36189 13.7949 9.54693 13.6499 9.64696 13.3948C9.65697 13.3698 9.66697 13.3698 9.68703 13.3897C9.85203 13.6048 10.007 13.84 10.1521 14.1C10.1671 14.1249 10.1671 14.15 10.1421 14.17C9.907 14.42 9.61695 14.58 9.28688 14.6452C8.94679 14.7051 8.62671 14.6551 8.33663 14.485C8.074 14.3504 7.85947 14.1376 7.72246 13.8762C7.58548 13.6147 7.53272 13.3173 7.57145 13.0247C7.60145 12.6497 7.76149 12.3245 8.05157 12.0495C8.06657 12.0294 8.08657 12.0294 8.11157 12.0395C8.36164 12.1795 8.6017 12.3395 8.82176 12.5195C8.84676 12.5396 8.84676 12.5545 8.81676 12.5696V12.5646ZM15.2033 12.5646C15.1583 12.5446 15.1533 12.5195 15.1983 12.4946L15.8685 12.0445C15.8935 12.0244 15.9186 12.0244 15.9435 12.0445C16.3687 12.4195 16.5287 12.8797 16.4337 13.4348C16.3971 13.6919 16.2898 13.9337 16.1238 14.1332C15.9578 14.3329 15.7396 14.4824 15.4935 14.5651C14.9132 14.7901 14.3831 14.6701 13.893 14.215C13.843 14.1649 13.843 14.115 13.873 14.0649C14.0131 13.8199 14.1631 13.5949 14.3181 13.3897C14.3331 13.3698 14.3481 13.3698 14.3581 13.3948C14.4931 13.7199 14.7283 13.8599 15.0683 13.8149C15.4084 13.7649 15.5884 13.5698 15.6084 13.2247C15.6285 12.9247 15.4935 12.7046 15.2033 12.5646Z" fill="white"/>
</svg>

<svg xmlns="http://www.w3.org/2000/svg" width="24" height="24" fill="none" viewBox="0 0 24 24">
    <path fill="#fff" d="M5.786 6.683q-.001.024.02.025 3.472.166 6.156 2.35.037.03.075 0a10.28 10.28 0 0 1 6.152-2.35q.039-.001.04-.04v-2.64q0-.03.03-.03h.725c.015 0 .02.01.02.02v2.925q.001.375-.245.48a.6.6 0 0 1-.23.04c-2.53.05-4.701.936-6.507 2.646-.015.015-.035.015-.05 0a9.47 9.47 0 0 0-6.511-2.646c-.31 0-.46-.16-.46-.475V4.022q.002-.024.024-.025h.716c.03 0 .05.015.05.05z"/>
    <path fill="#fff" d="M12.002 11.24c.005 0 .01 0 .015-.01a8.55 8.55 0 0 1 6.202-2.987l.485-.03q.157-.008.285-.07c.5-.23.75-.63.75-1.21l-.01-1.37q-.002-.036.036-.035h.7q.039-.001.04.05c-.01.3-.01.6 0 .915.005.38 0 .67-.03.855a1.89 1.89 0 0 1-1.1 1.456q-.391.186-.716.185a9.7 9.7 0 0 0-2.56.4 7.74 7.74 0 0 0-4.087 3.14q-.017.03-.035 0a7.75 7.75 0 0 0-6.261-3.52 4.3 4.3 0 0 1-.775-.085 1.88 1.88 0 0 1-1.026-.675 1.83 1.83 0 0 1-.41-1.15V5.562q0-.036.03-.035h.7q.037-.001.036.035v1.435c0 .275.07.52.225.735.15.215.36.365.62.445.11.035.3.05.57.055a8.53 8.53 0 0 1 6.277 2.986q.016.023.04.015z"/>
    <path fill="#fff" d="M10.537 7.178a10 10 0 0 0-.97-.45q-.075-.038 0-.06a6.94 6.94 0 0 1 4.89.015c.016.02.016.03-.004.04-.36.14-.7.3-1.01.465a.2.2 0 0 1-.136.02 6 6 0 0 0-2.6 0 .24.24 0 0 1-.17-.03"/>
    <path fill="#30A8B5" d="M12.028 14.075a6.75 6.75 0 0 1 2.33-3.05 6.8 6.8 0 0 1 3.976-1.351q.474-.014.7-.065a2.646 2.646 0 0 0 2.12-2.576c0-.02.01-.035.036-.035h.77q.039.001.04.04a3.54 3.54 0 0 1-3.57 3.481 6.1 6.1 0 0 0-5.027 2.716 6.06 6.06 0 0 0-.97 2.936v.26c.01.045-.01.065-.05.065l-.78.005q-.015 0-.016-.015a6.3 6.3 0 0 0-.625-2.611c-.395-.81-.95-1.5-1.675-2.065a5.9 5.9 0 0 0-3.456-1.276q-.751-.031-.865-.055a3.7 3.7 0 0 1-1.826-.9A3.53 3.53 0 0 1 2 7.049q-.001-.052.05-.05h.78q.039 0 .04.044a2.42 2.42 0 0 0 .69 1.75 2.54 2.54 0 0 0 1.7.856q.148.016.456.025c.28.015.49.025.63.045 1.28.15 2.426.62 3.426 1.4a6.85 6.85 0 0 1 2.21 2.956q.023.06.046 0"/>
    <path fill="#fff" d="M8.061 17.69a6 6 0 0 0 4.556 1.436 6.037 6.037 0 0 0 5.187-7.692q-.016-.051.035-.05l.775-.035c.02 0 .03.005.035.025.35 1.32.3 2.63-.135 3.936a6.7 6.7 0 0 1-2.27 3.221 6.75 6.75 0 0 1-3.967 1.465 6.67 6.67 0 0 1-4.056-1.135 6.91 6.91 0 0 1-2.86-7.487q0-.03.03-.03l.77.04q.06 0 .045.06a6.06 6.06 0 0 0 1.85 6.247z"/>
    <path fill="#fff" d="M8.817 12.565a.6.6 0 0 0-.39.395c-.07.19-.05.375.05.55.15.235.35.34.62.31.265-.025.45-.17.55-.425.01-.025.02-.025.04-.005q.247.321.465.71c.015.025.015.05-.01.07-.235.25-.525.41-.855.475-.34.06-.66.01-.95-.16a1.43 1.43 0 0 1-.766-1.46q.045-.562.48-.976c.016-.02.036-.02.06-.01.25.14.49.3.71.48q.04.03-.004.05zm6.386 0c-.045-.02-.05-.045-.005-.07l.67-.45q.037-.03.075 0c.426.374.586.835.49 1.39a1.4 1.4 0 0 1-.94 1.13c-.58.225-1.11.105-1.6-.35-.05-.05-.05-.1-.02-.15q.211-.367.445-.675.024-.031.04.005.201.488.71.42.51-.074.54-.59.03-.45-.405-.66"/>
</svg>
